symbols/web/photo_album/materialsymbolsoutlined/photo_album_wght100gradN25fill1_40px.svg

<svg xmlns="http://www.w3.org/2000/svg" height="40" width="40"><path d="M11.167 34.417q-.917 0-1.605-.667-.687-.667-.687-1.625V7.875q0-.958.687-1.625.688-.667 1.605-.667h17.666q.917 0 1.605.667.687.667.687 1.625v24.25q0 .958-.687 1.625-.688.667-1.605.667Zm2.166-5.5h13.75l-4.208-5.542-4.083 5.042-2.709-3.084Zm7.625-12.792 3-1.792L27 16.125V6.542h-6.042Z"/></svg>

<svg xmlns="http://www.w3.org/2000/svg" height="40" width="40"><path d="M11.167 34.417Q10.25 34.417 9.562 33.75Q8.875 33.083 8.875 32.125V7.875Q8.875 6.917 9.562 6.25Q10.25 5.583 11.167 5.583H28.833Q29.75 5.583 30.438 6.25Q31.125 6.917 31.125 7.875V32.125Q31.125 33.083 30.438 33.75Q29.75 34.417 28.833 34.417ZM13.333 28.917H27.083L22.875 23.375L18.792 28.417L16.083 25.333ZM20.958 6.542V16.125L23.958 14.333L27 16.125V6.542Z"/></svg>
